svgs/sharp-regular/microchip-ai.svg

<svg xmlns="http://www.w3.org/2000/svg" viewBox="0 0 512 512"><!--! Font Awesome Pro 6.4.0 by @fontawesome - https://fontawesome.com License - https://fontawesome.com/license (Commercial License) Copyright 2023 Fonticons, Inc. --><path d="M184 0V24 64h48V24 0h48V24 64h48V24 0h48V24 64h24 48v48 24h40 24v48H488 448v48h40 24v48H488 448v48h40 24v48H488 448v24 48H400 376v40 24H328V488 448H280v40 24H232V488 448H184v40 24H136V488 448H112 64V400 376H24 0V328H24 64V280H24 0V232H24 64V184H24 0V136H24 64V112 64h48 24V24 0h48zM400 112H112V400H400V112zm-44 64v16V320v16H316V320 192 176h40zm-124.7 0l3.4 8.8L293.3 336H250.4l-7.8-20H189.4l-7.8 20H138.8l58.6-151.2 3.4-8.8h30.5zM216 247.4L204.9 276h22.2L216 247.4z"/></svg>

<svg xmlns="http://www.w3.org/2000/svg" viewBox="0 0 512 512"><!--! Font Awesome Pro 6.6.0 by @fontawesome - https://fontawesome.com License - https://fontawesome.com/license (Commercial License) Copyright 2024 Fonticons, Inc. --><path d="M184 0l0 24 0 40 48 0 0-40 0-24 48 0 0 24 0 40 48 0 0-40 0-24 48 0 0 24 0 40 24 0 48 0 0 48 0 24 40 0 24 0 0 48-24 0-40 0 0 48 40 0 24 0 0 48-24 0-40 0 0 48 40 0 24 0 0 48-24 0-40 0 0 24 0 48-48 0-24 0 0 40 0 24-48 0 0-24 0-40-48 0 0 40 0 24-48 0 0-24 0-40-48 0 0 40 0 24-48 0 0-24 0-40-24 0-48 0 0-48 0-24-40 0L0 376l0-48 24 0 40 0 0-48-40 0L0 280l0-48 24 0 40 0 0-48-40 0L0 184l0-48 24 0 40 0 0-24 0-48 48 0 24 0 0-40 0-24 48 0zM400 112l-288 0 0 288 288 0 0-288zm-44 64l0 16 0 128 0 16-40 0 0-16 0-128 0-16 40 0zm-124.7 0l3.4 8.8L293.3 336l-42.9 0-7.8-20-53.2 0-7.8 20-42.9 0 58.6-151.2 3.4-8.8 30.5 0zM204.9 276l22.2 0L216 247.4 204.9 276z"/></svg>
